rospo-icon-theme-classic-common/48x48/places/folder-black-google-drive.svg

<svg height="48" width="48" xmlns="http://www.w3.org/2000/svg"><rect height="26" opacity=".2" rx="2" width="40" x="4" y="17"/><path d="m4 34c0 1.108.892 2 2 2h36c1.108 0 2-.892 2-2v-22c0-1.108-.892-2-2-2h-20v-2c0-1.108-.892-2-2-2h-14c-1.108 0-2 .892-2 2" fill="#3f3f3f"/><rect height="26" opacity=".2" rx="2" width="40" x="4" y="15"/><rect fill="#dcdcdc" height="16" rx="2" width="36" x="6" y="13"/><rect fill="#4f4f4f" height="26" rx="2" width="40" x="4" y="16"/><path d="m6 6c-1.108 0-2 .892-2 2v1c0-1.108.892-2 2-2h14c1.108 0 2 .892 2 2v-1c0-1.108-.892-2-2-2zm16 4v1h20c1.108 0 2 .892 2 2v-1c0-1.108-.892-2-2-2z" fill="#fff" opacity=".1"/><g fill="#c2c2c2"><path d="m31.999 30.937-5.333-8.935h-5.167l5 8.935z"/><path d="m22.499 31.914-2.5 4.048h9.334l2.666-4.048z"/><path d="m20.999 22.999-4.999 8.975 2.666 3.988 5.033-7.977z"/></g></svg>

<svg xmlns="http://www.w3.org/2000/svg" width="48" height="48" version="1">
 <rect style="opacity:0.2" width="40" height="26" x="4" y="17" rx="2" ry="2"/>
 <path style="fill:#3f3f3f" d="M 4,34 C 4,35.108 4.892,36 6,36 H 42 C 43.108,36 44,35.108 44,34 V 12 C 44,10.892 43.108,10 42,10 H 22 V 8 C 22,6.892 21.108,6 20,6 H 6 C 4.892,6 4,6.892 4,8"/>
 <rect style="opacity:0.2" width="40" height="26" x="4" y="15" rx="2" ry="2"/>
 <rect style="fill:#dcdcdc" width="36" height="16" x="6" y="13" rx="2" ry="2"/>
 <rect style="fill:#4f4f4f" width="40" height="26" x="4" y="16" rx="2" ry="2"/>
 <path style="opacity:0.1;fill:#ffffff" d="M 6,6 C 4.892,6 4,6.892 4,8 V 9 C 4,7.892 4.892,7 6,7 H 20 C 21.108,7 22,7.892 22,9 V 8 C 22,6.892 21.108,6 20,6 Z M 22,10 V 11 H 42 C 43.108,11 44,11.892 44,13 V 12 C 44,10.892 43.108,10 42,10 Z"/>
 <g>
  <path style="fill:#c2c2c2" d="M 31.999,30.937 26.666,22.002 H 21.499 L 26.499,30.937 Z"/>
  <path style="fill:#c2c2c2" d="M 22.499,31.914 19.999,35.962 H 29.333 L 31.999,31.914 Z"/>
  <path style="fill:#c2c2c2" d="M 20.999,22.999 16,31.974 18.666,35.962 23.699,27.985 Z"/>
 </g>
</svg>
